!!!COM: Palestrina, Giovanni Perluigi da
!!!OPR: Missa Qual e il piu grande'amore
!!!OTL: Sanctus
**kern	**kern	**kern	**kern	**kern
*Ibass	*Itenor	*Icalto	*Icant	*Icant
!Bassus	!Tenor	!Altus	!Cantus 2	!Cantus 1
*clefF4	*clefGv2	*clefG2	*clefG2	*clefG2
*k[b-]	*k[b-]	*k[b-]	*k[b-]	*k[b-]
*F:ion	*F:ion	*F:ion	*F:ion	*F:ion
*M4/2	*M4/2	*M4/2	*M4/2	*M4/2
=1	=1	=1	=1	=1
0r	0r	1B-	0r	0r
.	.	1d	.	.
=2	=2	=2	=2	=2
0r	0r	2.f	1r	0r
.	.	4e	.	.
.	.	4d	1f	.
.	.	4c	.	.
.	.	[2d	.	.
=3	=3	=3	=3	=3
0r	0r	2d]	1a	0r
.	.	4c	.	.
.	.	4B-	.	.
.	.	2A	2.cc	.
.	.	2c	.	.
.	.	.	4b-	.
=4	=4	=4	=4	=4
0r	0r	2.d	4a	1f
.	.	.	4g	.
.	.	.	4f	.
.	.	4e	4e	.
.	.	[1f	4d	1a
.	.	.	4e	.
.	.	.	4f	.
.	.	.	4g	.
=5	=5	=5	=5	=5
1F	0r	1f]	2.a	2.cc
.	.	.	4b-	4b-
1A	.	1c	2cc	4a
.	.	.	.	4g
.	.	.	2a	[2f
=6	=6	=6	=6	=6
2.c	0r	2r	1g	2f]
.	.	1c	.	2e
4B-	.	.	.	.
4A	.	.	1c	2.a
4G	.	.	.	.
4F	.	2A	.	.
4E	.	.	.	4g
=7	=7	=7	=7	=7
2D	1r	2B-	2d	2f
2C	.	2c	2e	2e
2.D	1F	1A	[1f	2d
.	.	.	.	[2a
4E	.	.	.	.
=8	=8	=8	=8	=8
1F	1A	2r	2f]	4a]
.	.	.	.	4b-
.	.	1f	2a	2.cc
1C	2.c	.	2g	.
.	.	.	.	4b-
.	.	2e	[2cc	2g
.	4B-	.	.	.
=9	=9	=9	=9	=9
2.F	4A	1.f	4cc]	1a
.	4G	.	4b-	.
.	4F	.	4a	.
4G	4E	.	4g	.
4A	2D	.	4f	1r
4B-	.	.	4d	.
[2c	2C	2e	[2g	.
=10	=10	=10	=10	=10
2c]	1G	2d	4g]	1dd
.	.	.	4f	.
2B-	.	2.g	2d	.
2.c	2r	.	1e	1g
.	.	4f	.	.
.	[2c	4e	.	.
4B-	.	4d	.	.
=11	=11	=11	=11	=11
4A	4c]	2e	2.a	2.cc
4G	4B-	.	.	.
2.F	4A	2f	.	.
.	4G	.	4b-	4b-
.	1A	2c	2cc	4a
4E	.	.	.	4g
4D	.	[2f	[2dd	4f
4C	.	.	.	4e
=12	=12	=12	=12	=12
0BB-	2B-	4f]	4dd]	2.d
.	.	4e	4cc	.
.	2.d	4d	2.b-	.
.	.	4c	.	4e
.	.	4B-	.	2f
.	4c	4c	4a	.
.	4B-	2d	4g	[2g
.	4A	.	4f	.
=13	=13	=13	=13	=13
0C	2G	[0c	2e	2g]
.	2A	.	2f	1f
.	1G	.	1g	.
.	.	.	.	2e
=14	=14	=14	=14	=14
2F	0F	1c]	2a	0f
2.A	.	.	2.cc	.
.	.	2r	.	.
4A	.	.	4cc	.
2A	.	[2f	2cc	.
=15	=15	=15	=15	=15
1.B-	0r	4f]	1.dd	0r
.	.	4f	.	.
.	.	2f	.	.
.	.	1g	.	.
2G	.	.	2b-	.
=16	=16	=16	=16	=16
4A	0r	2e	4cc	1r
4G	.	.	4b-	.
4F	.	1f	4a	.
4E	.	.	4g	.
2D	.	.	4a	2r
.	.	.	4b-	.
2C	.	2e	[2cc	[2g
=17	=17	=17	=17	=17
1G	1r	1d	2cc]	4g]
.	.	.	.	4g
.	.	.	2b-	2g
2.F	2r	2r	[1cc	[1a
.	[2c	2f	.	.
4G	.	.	.	.
=18	=18	=18	=18	=18
1A	4c]	2e	1cc]	2a]
.	4c	.	.	.
.	2c	2A	.	2f
1G	[1d	4B-	1r	4g
.	.	4c	.	4a
.	.	4d	.	4b-
.	.	4e	.	4g
=19	=19	=19	=19	=19
0r	2d]	4f	0r	2a
.	.	4d	.	.
.	2B-	1f	.	2b-
.	2.c	.	.	2g
.	.	2e	.	[2cc
.	4B-	.	.	.
=20	=20	=20	=20	=20
0r	4A	4f	2r	2cc]
.	8G	4e	.	.
.	8A	.	.	.
.	1B-	4d	2.f	1dd
.	.	4c	.	.
.	.	2B-	.	.
.	.	.	4f	.
.	2A	2c	2f	[2cc
=21	=21	=21	=21	=21
1r	1G	1d	1g	2cc]
.	.	.	.	2b
2r	[1c	4c	2e	[1cc
.	.	4d	.	.
[2C	.	4e	4c	.
.	.	4f	4d	.
=22	=22	=22	=22	=22
4C]	2c]	2g	4e	1cc]
4C	.	.	4f	.
2C	2c	2e	2.g	.
[1D	1A	[1d	.	1r
.	.	.	4f	.
.	.	.	2f	.
=23	=23	=23	=23	=23
2D]	1B-	1d]	2d	1r
2BB-	.	.	1f	.
1C	1G	1c	.	2r
.	.	.	2e	[2cc
=24	=24	=24	=24	=24
1F	2A	2r	1f	4cc]
.	.	.	.	4cc
.	2A	2.f	.	2cc
2BB-	2.B-	.	1r	[1dd
.	.	4f	.	.
4B-	.	2f	.	.
4A	4c	.	.	.
=25	=25	=25	=25	=25
4G	1d	1g	2r	2dd]
4F	.	.	.	.
2G	.	.	2.g	2b-
1C	2r	1e	.	2.cc
.	.	.	4g	.
.	[2c	.	2g	.
.	.	.	.	4b-
=26	=26	=26	=26	=26
0F	4c]	4f	1.a	4a
.	4B-	4e	.	4g
.	4A	4d	.	2.f
.	4G	4c	.	.
.	2F	4d	.	.
.	.	4c	.	4e
.	2A	[2c	2f	4d
.	.	.	.	4c
=27	=27	=27	=27	=27
0r	1G	2c]	2g	2d
.	.	2B	2g	2d
.	1C	1c	1g	1e
=28	=28	=28	=28	=28
1F	1c	2r	0r	1a
.	.	2f	.	.
2C	2c	2e	.	2g
2C	2c	2e	.	2a
=29	=29	=29	=29	=29
1BB-	1d	1f	0r	1b-
2F	2c	2f	.	2a
2G	2B-	[2e	.	[2g
=30	=30	=30	=30	=30
1D	0A	4e]	0r	4g]
.	.	4d	.	4f
.	.	1d	.	2f
1AA	.	.	.	1e
.	.	2c#	.	.
=31	=31	=31	=31	=31
1D	1A	1d	1a	1f#
1r	1c	1e	2g	1r
.	.	.	2a	.
=32	=32	=32	=32	=32
0r	2G	2d	1b-	1g
.	2G	2e	.	.
.	1F	1f	[1a	2cc
.	.	.	.	2cc
=33	=33	=33	=33	=33
0r	2A	2e	2a]	2cc
.	2d	2.d	2f	1a
.	1A	.	1e	.
.	.	8c#	.	.
.	.	8B	.	.
.	.	2c#	.	2a
=34	=34	=34	=34	=34
0r	2.B-	2d	4d	4f
.	.	.	4e	4e
.	.	2B-	4f	4d
.	8A	.	4g	4e
.	8G	.	.	.
.	[1F	[1c	4a	4f
.	.	.	4b-	4g
.	.	.	[2cc	[2a
=35	=35	=35	=35	=35
1r	1F]	0c]	4cc]	4a]
.	.	.	4b-	4g
.	.	.	2a	1f
2r	1C	.	2.g	.
2c	.	.	.	2e
.	.	.	8f	.
.	.	.	8e	.
=36	=36	=36	=36	=36
2B-	0r	2r	2d	1f
2A	.	2c	2c	.
2G	.	2B-	2d	2r
2F	.	2A	2f	2cc
=37	=37	=37	=37	=37
2r	1r	2G	2r	2b-
2F	.	2F	2cc	2a
2G	2r	2r	2b-	2g
2A	2c	2F	2a	4f
.	.	.	.	4e
=38	=38	=38	=38	=38
2B-	2B-	2G	2g	2d
2c	2A	2A	1f	2c
1C	1G	2.c	.	1g
.	.	.	2e	.
.	.	4B-	.	.
=39	=39	=39	=39	=39
2.D	2F	2A	0f	2r
.	2B-	2F	.	2dd
4E	.	.	.	.
1F	2.A	2r	.	2.cc
.	.	2f	.	.
.	4F	.	.	4a
=40	=40	=40	=40	=40
1r	2G	2.e	0r	2b-
.	2A	.	.	1a
.	.	4c	.	.
1G	1B-	2d	.	.
.	.	2e	.	2g
=41	=41	=41	=41	=41
2.F	1A	1f	2r	1a
.	.	.	2dd	.
4D	.	.	.	.
2E	2r	2g	2.cc	1r
2F	2c	4f	.	.
.	.	4e	4a	.
=42	=42	=42	=42	=42
2G	2B-	2d	2b-	0r
2E	2G	2g	2cc	.
1D	2A	2.f	2dd	.
.	2d	.	2a	.
.	.	4d	.	.
=43	=43	=43	=43	=43
1A	2c	2e	1cc	2r
.	2A	2f	.	2a
1r	2B-	2d	2dd	2.g
.	2c	2e	4cc	.
.	.	.	4b-	4e
=44	=44	=44	=44	=44
0r	2d	2r	2a	2f
.	2B-	2d	1dd	2g
.	[1A	1e	.	1a
.	.	.	2cc#	.
=45	=45	=45	=45	=45
1D	1A]	1f	2dd	2.a
.	.	.	2a	.
.	.	.	.	8g
.	.	.	.	8f
2.C	2r	2g	1cc	1e
.	2A	2c	.	.
4AA	.	.	.	.
=46	=46	=46	=46	=46
2BB-	2G	2d	2b-	0r
2C	2E	1c	1a	.
1D	2F	.	.	.
.	2G	2B	4g	.
.	.	.	4f	.
=47	=47	=47	=47	=47
0C	1A	[0c	2e	2.cc
.	.	.	1f	.
.	.	.	.	4cc
.	1G	.	.	1cc
.	.	.	2e	.
=48	=48	=48	=48	=48
0F	0F	0c]	0f	0a
==	==	==	==	==
*-	*-	*-	*-	*-
!!!CDT: 1525/^1526/-1594/2/2
!!!OCY: Italia
!!!AGN: Mass (Parody)
!!!AST: renaissance, vocal
!!!ASW: Madrigal 1550 (Rore)
!!!PWK: Masses, Book 12
!!!RNB: Cadence finals: C
!!!YOR: Le Opere Complete, v. 29, p. 88
!!!YOO: Rome, Italy: Fratelli Scalera
!!!END: 1992//
!!!EED: John Miller
!!!YEC: Copyright 2000, John Miller
!!!YEN: United States of America
!!!YEM: Rights to all derivative electronic formats reserved.
!!!YEM: Refer to licensing agreement for further details.
!!!YEM: This file must be accompanied by the licensing agreement.
!!!YEM: A copy of the licensing agreement may be found at http://www.music-cog.ohio-state.edu/HumdrumDatabases/Palestrina/license.txt
!!!EMD: converted to Humdrum by Bret Aarden
